symbols/web/escalator_warning/materialsymbolsrounded/escalator_warning_wght200_40px.svg

<svg xmlns="http://www.w3.org/2000/svg" height="40" width="40"><path d="M12.5 9.583q-1.125 0-1.938-.791Q9.75 8 9.75 6.875q0-1.167.792-1.958.791-.792 1.958-.792 1.125 0 1.938.792.812.791.812 1.958 0 1.125-.792 1.917-.791.791-1.958.791Zm15.458 9.5q-.916 0-1.541-.625-.625-.625-.625-1.541 0-.959.625-1.563t1.541-.604q.917 0 1.542.604t.625 1.563q0 .916-.625 1.541-.625.625-1.542.625Zm-17.041 16.75q-.542 0-.896-.354t-.354-.854V24.75H8q-.5 0-.854-.354t-.354-.854v-8.75q0-.959.729-1.688t1.729-.729h5.292q.791 0 1.395.458.605.459.855 1.209l4.083 11.375 4.25-4.042q.25-.25.563-.354.312-.104.687-.104h3.458q.75 0 1.292.521.542.52.542 1.312v4.875q0 .542-.355.875-.354.333-.854.333h-.583v5.792q0 .5-.354.854t-.854.354h-1.792q-.542 0-.896-.354t-.354-.854V22.708l-3.208 3.125q-.209.167-.396.25-.188.084-.438.084h-1.208q-.375 0-.708-.25-.334-.25-.459-.584L15.458 15v19.625q0 .5-.354.854t-.854.354Z"/></svg>

<svg xmlns="http://www.w3.org/2000/svg" height="40" width="40"><path d="M12.5 9.583Q11.375 9.583 10.562 8.792Q9.75 8 9.75 6.875Q9.75 5.708 10.542 4.917Q11.333 4.125 12.5 4.125Q13.625 4.125 14.438 4.917Q15.25 5.708 15.25 6.875Q15.25 8 14.458 8.792Q13.667 9.583 12.5 9.583ZM27.958 19.083Q27.042 19.083 26.417 18.458Q25.792 17.833 25.792 16.917Q25.792 15.958 26.417 15.354Q27.042 14.75 27.958 14.75Q28.875 14.75 29.5 15.354Q30.125 15.958 30.125 16.917Q30.125 17.833 29.5 18.458Q28.875 19.083 27.958 19.083ZM10.917 35.833Q10.375 35.833 10.021 35.479Q9.667 35.125 9.667 34.625V24.75H8Q7.5 24.75 7.146 24.396Q6.792 24.042 6.792 23.542V14.792Q6.792 13.833 7.521 13.104Q8.25 12.375 9.25 12.375H14.542Q15.333 12.375 15.937 12.833Q16.542 13.292 16.792 14.042L20.875 25.417L25.125 21.375Q25.375 21.125 25.688 21.021Q26 20.917 26.375 20.917H29.833Q30.583 20.917 31.125 21.438Q31.667 21.958 31.667 22.75V27.625Q31.667 28.167 31.312 28.5Q30.958 28.833 30.458 28.833H29.875V34.625Q29.875 35.125 29.521 35.479Q29.167 35.833 28.667 35.833H26.875Q26.333 35.833 25.979 35.479Q25.625 35.125 25.625 34.625V22.708L22.417 25.833Q22.208 26 22.021 26.083Q21.833 26.167 21.583 26.167H20.375Q20 26.167 19.667 25.917Q19.333 25.667 19.208 25.333L15.458 15V34.625Q15.458 35.125 15.104 35.479Q14.75 35.833 14.25 35.833Z"/></svg>
